X:1
T:[ID 3-11a]
T:[ID 3-11a]
T:Bezeichnung standardisiert: Menuett Menuet
T:Urheber unbekannt Erstbeleg: 1773 (Datum in der schriftlichen Quelle) Datum in der hier transkribierten schriftlichen Quelle: 1792
C:Urheber unbekannt
C:Erstbeleg: 1773 (Datum in der schriftlichen Quelle)
C:Datum in der hier transkribierten schriftlichen Quelle: 1792
%%score 1 2
L:1/8
M:3/4
K:G
V:1 treble nm="Primo"
V:2 treble nm="Secondo"
V:1
 g2 g2 g2 | f3 e d2 | e2 e2 e2 | d3 c B2 | c2 ecec | B3 c d2 | ed c2 B2 | c2 B4 :: A2 cAcA | %9
 G3 A B2 | B2 dBdB | A3 B c2 | c2 ecec | B3 c d2 | (3edc B2 A2 | B2 A4 :| %16
V:2
 !fermata!G2 B2 G2 | d3 c B2 | c2 c2 c2 | B3 A G2 | A2 cAcA | G3 A B2 | cB A2 G2 | G2 D4 :: %8
 D2 ADAD | B,3 D F2 | G2 BGBG | F3 G A2 | A2 cAcA | G3 A B2 | (3cBA G2 D2 | C2 B,4 :| %16

